X: 30512
T: Olivier's Schottische
R: barndance
M: 4/4
K: Bminor
|:B2 Bd f2ed|c2 cd c4|fefg fedc|decd BAB2|
B2 Bd f2ed|f2 fg f4|fefg fedc|decd B4:|
|:G3B d2cB|d2cB F4|fefg fedc|decd BAB2|
G3B d2cB|d2cB F4|fefg fedc|decd B4:|

